X:12401
T:The Black Bear
T:Black Baird Hornpipe (1866)
C:Trad
B: Scots Guards I p8
H:
O:Kevin Fraser
Z:Kevin Fraser
Q:1/4=90
K:HP
M:2/4
L:1/16
R:March
U: R = ///
U: r = //
U: V = !accent!
V:M gstem=up stem=down name="Melody" sname="Melody" 
V:H gstem=up stem=down name="Harmony" sname="Harmony"
V:C gstem=up stem=down name="C-Harmony" sname="C-Harmony"
V:S gstem=up stem=down dyn=up stafflines=1 clef=perc middle=G name="Snare" sname="Snare"" sname=snare
V:B gstem=up stem=down clef=none dyn=up name="Bass" sname="Bass"
V:T gstem=up stem=down clef=none dyn=up name="Tenor" sname="Tenor"
V:BB gstem=up stem=down name="Brass Bass" sname="Bass" transpose=-1  octave=-2 clef=bass
V:BC gstem=up stem=down name="Brass Chord" sname="ABCD-D" transpose=-1
V:BD gstem=up stem=down name="Brass Chord 2" sname="ABCD-B" transpose=-1
V:P gstem=up stem=down name="Piano" sname="Piano" transpose=0 octave=-1
I:MIDI=program 110
%%MIDI gracedivider 4
%%score {M BC BD BB}
%%score {M}
% %MIDI program 109 #bagpipes
%%MIDI vol 100
%%barsperscore 4
%%landscape
T: Black Bear (ASPD)(Canntaireachd)
[V:M]|| {g}A>B  |  !segno!{Gdc}d2{gdG}d2 {g}f>da>f      |   {Gdc}d2{gdG}d2 {g}f>da>f      | {gef}e2{g}B2 {GdGe}B2{gef}e>d  | {g}c<d{e}B>{d}c {g}A>B{g}c<{e}A | $
w: hen o   |   tra     hara   he o I ve      |    tra     hara   he a I ve     |  chehe  ho     dro   chehe a   |  hio a eo   dio  hen o   hioen
[V:M]           |  {Gdc}d2{gdG}d2 {g}f>da>f      |   {Gdc}d2{gdG}d2 {g}f>da>f      | {g}e2{GdG}e2 {g}e>g{fg}f>e     | {Gdc}d2{g}f2 !fine! {Gdc}d2  :| $
w:         |   tra     hara   he o I i      |    tra     hara   he a I vi     |  chi  dri     hi di  chehe e   | tra     chi    tra
[V:M]|| e2      | {g}A2{GdGe}A>B {Gdc}d2{gdG}d>e | {gf}g2{fg}f>e {g}f<af<d         | {g}A2{GdGe}A>B {Gdc}d2{gdG}d>e | {gf}g2{fg}f>e {g}f<af/da/ | $
w: e       |  hen dren o     tra hara e     |  tri   chehe e vi I vi a        |  hen dren o     tra hara e     |  tri   chehe e vi I vi a  I |
[V:M]           | A{d}>A{e}A>c {g}A{d}>A{e}A>d   | {g}B>{d}B{e}B>e {g}c>{d}c{e}c2  | {g}d>f{g}d>f {g}e>g{a}f>g      | a2{GdG}a2 {g}a>g{fg}f>e!D.S.! | $
w:         | en hen en io  hen den en a     | ho do eo e       hio dio eio    | ha vi ha vi  he chi vi chi     | I drI     lI di chihi e
% %MIDI program 4 #
K:DMix
[V:P][K:AMix]|| z  | !segno! [dfa][dfa] z2 |   [dfa][dfa] z2 | [egb]2 [Bdf]2   | [ceg]2 [Ace]2  | $
[V:P]           | [dfa][dfa] z2 |   [dfa][dfa] z2 | [egb]2 [egb]2   | [dfa][fad'] [dfa] !fine! :| $
[V:P]|| z     | [Ace]2 [Bdf]2 | [dfa]2 [dfa]2         | [Ace]2 [Bdf]2  | [dfa]2 [dfa]2 | $
[V:P]           | [Ace]2 [Ace]2    | [Bdf]2 [ceg]2  | [dfa]2 [egb]2 | [Ace]2 [Ace]2 !D.S.! | $
% %MIDI program 7 #
[V:BB][K:Bbmix]|| z | !segno! [e][e] d2 | [c][c] B2 | A2 =A2  | [B]2 [F]2 | $
[V:BB] | [e][e] d2 | [c][c] B2 | F2 B2  | [e][B] [e] !fine! :| $
[V:BB]|| z | [B]2 [c]2 | [e]2 [e]2 | [B]2 [c]2 | [e]2 [e]2 | $
[V:BB] | [B]2 [A]2 | [G]2 [F]2 | [e]2 [f]2 | [B]2 [B]2 !D.S.! | $
[V:BC][K:Bbmix]|| z | !segno! [b][b] z2 | [b][b] z2 | [c']2 [g]2 | [a]2 [f]2 | $
[V:BC] | [b][b] z2 | [b][b] z2 | [c']2 [c']2 | [b][e'] [b] !fine! :| $
[V:BC]|| z | [f]2 [g]2 | [b]2 [b]2 | [f]2 [g]2 | [b]2 [b]2 | $
[V:BC] | [f]2 [f]2 | [g]2 [a]2 | [b]2 [c']2 | [f']2 [f']2 !D.S.! | $
[V:BD][K:Bbmix]|| z | !segno! [g][g] z2 | [g][g] z2 | [a]2 [e]2 | [f]2 [d]2 | $
[V:BD] | [g][g] z2 | [g][g] z2 | [a]2 [a]2 | [g][b] [g] !fine! :| $
[V:BD]|| z | [d]2 [e]2 | [g]2 [g]2 | [d]2 [e]2 | [g]2 [g]2 | $
[V:BD] | [d]2 [d]2 | [ceg]2 [dfa]2 | [g]2 [a]2 | [d]2 [d]2 !D.S.! | $
W:The Black Bear is reputedly the fastest regimental march in the UK army. This old, very popular, tune is traditionally played 
W:as a marching off parade tune by every Scottish regiment returning to their barracks after a route march or a day's manoeuvres.
W:
W: The Scots word for barley is "bere" and, in 18th and 19th century documents, it is usually spelt thus, but sometimes "bear" (pronounced "beer"). 
W: An old popular variety of this grain had black beads on the heads and was known as "the black bere". 
W: There seems little doubt that the word "beer", meaning ale, comes from "bere" meaning barley. Perhaps, therefore, the tune should be called "The Black Beer".
W: It used to be customary, in some regiments, for the pipers to play this tune when entering the barracks after a route march or a day’s manoeuvres. 
W: At a certain point, the whole battalion gave a great roar, possibly in anticipation of foaming pints in the mess!
W: 
W: Sitting around the table in Pipe Sectional practice one day, we couldn't figure out why the 2nd part of Black Bear sounded horrible.
W: Turns out that between the 5 of us, we had 4 edititions with one of the editions having 2 different printing dates.  Each printing
W: had a different timing for the holds and cuts of Bars 1 and 2 of line 4.  So we tried out various sets of timing, and re-wrote how 
W: we were playing it to be as printed above.
T: Black Bear (Scots Guard)(Headquarters Company)
|| {g}AB  |  {Gdc}d{gdG}d {g}f>da>f |   {Gdc}d{gdG}d {g}f>da>f | {gef}e{g}B {GdGe}B{gef}e>d | {g}c<d{e}B>{d}c {g}A>B{g}c<{e}A |
          |  {Gdc}d{gdG}d {g}f>da>f |   {Gdc}d{gdG}d {g}f>da>f | {g}e{GdG}e {g}e>g{fg}f>e   | {Gdc}d{g}f {Gdc}"Fine"d :|
|| e      | {g}A{GdGe}A>B {Gdc}d{gdG}d>e | {gf}g{fg}f>e {g}f<af>d         | {g}A{GdGe}A>B {Gdc}d{gdG}d>e | {gf}g{fg}f>e {g}f<af>d |
          | a>A{g}>A{e}A {g}c<{d}A{g}A<{d}A | {g}d>B>{g}B<{d}B {g}e>c{g}c<{d}c  | {g}d>f{g}d>f {g}e>g{a}f>g    | a{GdG}a {g}a>g{a}f>e"D.C." |
W:Now when the pipes are ringing and the kilts are swinging
W:And your heart is singing as you gaily march along.
W:You can hear the story that is brave and roary
W:In the tunes of glory of an old Scots song.
W:If you’re standing near them and you ever hear them
W:You will want to cheer them as you feel the glory there
W:Because the rhythm fills you and the drum beat wills you
W:And the music thrills you of the old BLACK Bear
W:Brave are the orders we carry before us
W:Brave are the hearts that will lift in the chorus
W:Hear them playing, hear them saying
W:That’s the story in the tunes of glory
%%MIDI channel 10
%%MIDI program 0 
%%MIDI drummap c 38
%%MIDI drummap A 38
%%MIDI vol 50
%%MIDI drumon
% %MIDI drumoff
V:S
% %MIDI program 116 #taiko drum
% %MIDI program 0 
%%MIDI channel 10
%%MIDI vol 80
%%MIDI drummap A 35
%%MIDI drumon
L:1/8
V:B
%%MIDI drumoff
%%MIDI drummap e 43
%%MIDI channel 10
%%MIDI program 117 #Melodic Tom
%%MIDI vol 70
%%MIDI drumon
V:T
%%MIDI drumoff

